X: 42266
T: Weary We've Been
R: reel
M: 4/4
K: Dmajor
e|f2 fe d3/2B/A3/2B/|d2 d3/2B/ d2 d3/2e/|f2 fe d3/2B/A3/2B/|d2 e3/2d/ B2 A3/2e/|
f2 fe d3/2B/A3/2B/|d2 d3/2B/ d3 f|e2 e3/2f/ d3/2B/A3/2B/|d2 e3/2d/ B2 A3/2B/|:
|:d2 e3/2f/ a3/2f/e3/2f/|a3/2f/e3/2f/ a2 e3/2f/|d2 e3/2f/ a3/2f/e3/2f/|a3/2e/f3/2d/ B2 A:|

